X: 39206
T: Syans Den Bal
R: hornpipe
M: 4/4
K: Dmajor
|:AF|DFAc defd|cdef gfge|fafd egec|edcB AGFE|
DFAc defd|cdef gfge|fafd egec|d2 d2 d2:|
|:(3def|gfga gfga|e2 b2 bagf|efgf ef (3gfe|a2 a2 agfe|
dcde fedc|defg fg (3efg|af (3def gece|d2 d2 d2:|

